client/public/assets/icons/standard/quick_text.svg

<?xml version="1.0"?><svg xmlns="http://www.w3.org/2000/svg" width="100" height="100" viewBox="0 0 100 100"><title></title><desc></desc><path fill="#fff" d="m49.5 21.5c-16.7 0-29.9 12.3-29.9 27.4 0 4.8 1.4 9.3 3.6 13.3 0.4 0.6 0.5 1.4 0.3 2.1l-3.9 10.7c-0.4 1 0.6 1.9 1.6 1.6l10.8-4.1c0.6-0.3 1.4-0.1 2.1 0.3 4.5 2.5 9.9 4 15.7 4 16.4-0.1 29.8-12.3 29.8-27.6-0.1-15.4-13.5-27.7-30.1-27.7z m-13.9 26.5c0-0.6 0.5-1.2 1.2-1.2h19.4c0.6 0 1.2 0.5 1.2 1.2v2.3c0 0.6-0.5 1.2-1.2 1.2h-19.5c-0.6 0-1.2-0.5-1.2-1.2v-2.3z m27.9 11.6c0 0.6-0.5 1.2-1.2 1.2h-25.6c-0.6 0-1.2-0.5-1.2-1.2v-2.3c0-0.6 0.5-1.2 1.2-1.2h25.6c0.6 0 1.2 0.5 1.2 1.2v2.3z m0-18.6c0 0.6-0.5 1.2-1.2 1.2h-25.6c-0.6 0-1.2-0.5-1.2-1.2v-2.3c0-0.6 0.5-1.2 1.2-1.2h25.6c0.6 0 1.2 0.5 1.2 1.2v2.3z"></path></svg>

<?xml version="1.0" encoding="utf-8"?>
<!-- Generator: Adobe Illustrator 21.0.2, SVG Export Plug-In . SVG Version: 6.00 Build 0)  -->
<svg version="1.1" id="Layer_1" xmlns="http://www.w3.org/2000/svg" xmlns:xlink="http://www.w3.org/1999/xlink" x="0px" y="0px"
	 width="100px" height="100px" viewBox="0 0 100 100" enable-background="new 0 0 100 100" xml:space="preserve">
<title></title>
<desc></desc>
<path fill="#FFFFFF" d="M49.5,21.5c-16.7,0-29.9,12.3-29.9,27.4c0,4.8,1.4,9.3,3.6,13.3c0.4,0.6,0.5,1.4,0.3,2.1L19.6,75
	c-0.4,1,0.6,1.9,1.6,1.6L32,72.5c0.6-0.3,1.4-0.1,2.1,0.3c4.5,2.5,9.9,4,15.7,4c16.4-0.1,29.8-12.3,29.8-27.6
	C79.5,33.8,66.1,21.5,49.5,21.5z M35.6,48c0-0.6,0.5-1.2,1.2-1.2h19.4c0.6,0,1.2,0.5,1.2,1.2v2.3c0,0.6-0.5,1.2-1.2,1.2H36.7
	c-0.6,0-1.2-0.5-1.2-1.2V48z M63.5,59.6c0,0.6-0.5,1.2-1.2,1.2H36.7c-0.6,0-1.2-0.5-1.2-1.2v-2.3c0-0.6,0.5-1.2,1.2-1.2h25.6
	c0.6,0,1.2,0.5,1.2,1.2V59.6z M63.5,41c0,0.6-0.5,1.2-1.2,1.2H36.7c-0.6,0-1.2-0.5-1.2-1.2v-2.3c0-0.6,0.5-1.2,1.2-1.2h25.6
	c0.6,0,1.2,0.5,1.2,1.2V41z"/>
</svg>
